X:100
T:The Dub Reel
C:Reel - Em
L:1/8
Q:300
M:4/4
K:D
|:E2BEcddd|dBAFDEFD|E2BEcddd|dBAdBEED|E2BEcddd|dBAFDEFF|AFG/F/EFDEC|DB,A,DB,EED:|
|:E2EFGFED|B,DAFDEFD|E2EFGFED|B,DAFFEED|E2EFGFED|B,DA,B,D2DF|AFG/F/EFDEC|DB,A,DB,EED:|

